img/word-mark.svg

<?xml version="1.0" encoding="UTF-8" standalone="no"?>
<svg width="113px" height="12px" viewBox="0 0 113 12" version="1.1" xmlns="http://www.w3.org/2000/svg" xmlns:xlink="http://www.w3.org/1999/xlink" xmlns:sketch="http://www.bohemiancoding.com/sketch/ns">
    <!-- Generator: Sketch 3.0.4 (8053) - http://www.bohemiancoding.com/sketch -->
    <title>word-mark</title>
    <desc>Created with Sketch.</desc>
    <defs></defs>
    <g id="Page-1" stroke="none" stroke-width="1" fill="none" fill-rule="evenodd" sketch:type="MSPage">
        <g id="word-mark" sketch:type="MSArtboardGroup" fill="#D1D3D4">
            <g id="Word" sketch:type="MSLayerGroup">
                <path d="M3.05978889,5.23005405 L9.42357222,5.23005405 L9.42357222,6.76994595 L3.05978889,6.76994595 L3.05978889,5.23005405 Z" id="Fill-1" sketch:type="MSShapeGroup"></path>
                <path d="M-0.0499083333,0.467675676 C-0.0882027778,0.562378378 -0.107036111,0.660972973 -0.107036111,0.769945946 L-0.107036111,9.14172973 C-0.107036111,9.67427027 -0.0150666667,10.1241081 0.165733333,10.4782703 C0.351555556,10.8405405 0.583519444,11.136973 0.855661111,11.3594595 C1.13125556,11.5851892 1.43353056,11.7492973 1.754325,11.8469189 C2.087675,11.9487568 2.39591389,12 2.67025278,12 L10.4415139,12 L10.4415139,10.4789189 L2.68783056,10.4789189 C2.28071667,10.4789189 1.95646944,10.3582703 1.72513333,10.1202162 C1.49348333,9.88345946 1.37608889,9.55394595 1.37608889,9.14172973 L1.37608889,1.52140541 L10.4415139,1.52140541 L10.4415139,0 L0.643158333,0 C0.532041667,0 0.432852778,0.0194594595 0.340255556,0.0587027027 C0.249541667,0.0976216216 0.173894444,0.149513514 0.109233333,0.217945946 C0.0414333333,0.289621622 -0.0106722222,0.371027027 -0.0499083333,0.467675676" id="Fill-2" sketch:type="MSShapeGroup"></path>
                <path d="M35.0846167,11.2345946 C35.2996306,11.0652973 35.490475,10.8564324 35.6521278,10.6128649 C35.8156639,10.3667027 35.9500083,10.0754595 36.0510806,9.74886486 C36.1512111,9.42356757 36.202375,9.048 36.202375,8.63286486 C36.202375,8.21805405 36.1524667,7.84378378 36.0545333,7.51978378 C35.9566,7.19772973 35.8231972,6.91005405 35.6577778,6.66454054 C35.4923583,6.4187027 35.3002583,6.20562162 35.0871278,6.03081081 C34.8683472,5.85210811 34.6351278,5.70162162 34.3937472,5.58454054 C34.1511111,5.46713514 33.9050222,5.37924324 33.6620722,5.32313514 C33.4162972,5.26702703 33.1808806,5.23556757 32.9627278,5.23005405 L27.7524861,5.23005405 C27.2144806,5.23005405 26.7816278,5.05816216 26.4658556,4.71827027 C26.1547917,4.38389189 25.9969056,3.93502703 25.9969056,3.38464865 C25.9969056,2.84302703 26.1532222,2.39448649 26.4614611,2.05167568 C26.7775472,1.70010811 27.2119694,1.52140541 27.7524861,1.52140541 L35.0626444,1.52140541 L35.0626444,0 L27.7524861,0 C27.427925,0 27.0682083,0.0616216216 26.6840083,0.182918919 C26.3104806,0.301297297 25.9576694,0.496216216 25.6353056,0.763459459 C25.3167083,1.02778378 25.04645,1.37772973 24.83175,1.80486486 C24.6208167,2.22454054 24.5140944,2.75610811 24.5140944,3.38464865 C24.5140944,4.01416216 24.6211306,4.54702703 24.8320639,4.96994595 C25.04645,5.39935135 25.3163944,5.7492973 25.6337361,6.00908108 C25.9561,6.27405405 26.309225,6.46767568 26.6843222,6.5867027 C27.0688361,6.708 27.427925,6.76994595 27.7524861,6.76994595 L32.9551944,6.76994595 C33.213525,6.76994595 33.4545917,6.81567568 33.6714889,6.90616216 C33.8946639,6.99924324 34.0877056,7.13448649 34.2449639,7.30767568 C34.3987694,7.47697297 34.5180472,7.67837838 34.5996583,7.90605405 C34.6790722,8.12821622 34.71925,8.37308108 34.71925,8.63286486 C34.71925,9.17675676 34.5619917,9.62335135 34.2521833,9.96064865 C33.9360972,10.3041081 33.4997917,10.4789189 32.9551944,10.4789189 L24.6186194,10.4789189 L24.6186194,12 L32.9551944,12 C33.17115,12 33.4059389,11.9734054 33.6532833,11.9195676 C33.8996861,11.8663784 34.145775,11.7827027 34.3852722,11.6698378 C34.6241417,11.5589189 34.8592444,11.412 35.0846167,11.2345946" id="Fill-3" sketch:type="MSShapeGroup"></path>
                <path d="M60.7045417,7.97805405 C60.9562806,7.77794595 61.1822806,7.53275676 61.3765778,7.24767568 C61.5702472,6.96518919 61.7265639,6.63113514 61.8417611,6.25491892 C61.9569583,5.87902703 62.0153417,5.44183784 62.0153417,4.95567568 L62.0153417,3.90194595 C62.0153417,3.64508108 61.9858361,3.36356757 61.9271389,3.06616216 C61.8696972,2.77427027 61.7752167,2.47913514 61.6462083,2.18983784 C61.5165722,1.90021622 61.3502111,1.61805405 61.1515194,1.35145946 C60.9594194,1.09362162 60.7218056,0.862702703 60.4452694,0.664216216 C60.1684194,0.465081081 59.841975,0.302594595 59.4756667,0.181945946 C59.1099861,0.0612972973 58.6874917,0 58.220425,0 L53.10435,0 C52.8309528,0 52.5239694,0.0531891892 52.1915611,0.156 C51.8682556,0.257513514 51.5644111,0.42227027 51.2885028,0.64572973 C51.016675,0.865621622 50.7853389,1.16140541 50.6007722,1.5252973 C50.4193444,1.8827027 50.327375,2.33059459 50.327375,2.85794595 L50.327375,12 L51.8101861,12 L51.8101861,2.85794595 C51.8101861,2.4467027 51.9275806,2.11718919 52.1586028,1.87978378 C52.3908806,1.64172973 52.7145,1.52140541 53.1219278,1.52140541 L58.220425,1.52140541 C58.5669583,1.52140541 58.8817889,1.58140541 59.1548722,1.70010811 C59.4292111,1.81913514 59.6680806,1.98713514 59.8639472,2.19891892 C60.0579306,2.40908108 60.21205,2.66302703 60.3231667,2.95394595 C60.4280056,3.23027027 60.497375,3.53513514 60.5303333,3.86172973 L60.5322167,3.90194595 L60.5322167,4.95567568 C60.5322167,5.30335135 60.4760306,5.62216216 60.3649139,5.904 C60.2516,6.19102703 60.0896333,6.43978378 59.8827806,6.64443243 C59.6790667,6.84583784 59.4342333,7.00735135 59.1542444,7.12443243 C58.8846139,7.23697297 58.5804556,7.30864865 58.2511861,7.33556757 L58.220425,7.33686486 L53.4938861,7.33686486 L53.4938861,8.85859459 L58.220425,8.85859459 C58.4721639,8.85859459 58.745875,8.82778378 59.0346528,8.76778378 C59.3215472,8.70875676 59.6100111,8.61275676 59.8921972,8.4827027 C60.1725,8.35362162 60.4458972,8.18367568 60.7045417,7.97805405" id="Fill-4" sketch:type="MSShapeGroup"></path>
                <path d="M79.2720111,5.23005405 L85.6357944,5.23005405 L85.6357944,6.76994595 L79.2720111,6.76994595 L79.2720111,5.23005405 Z" id="Fill-5" sketch:type="MSShapeGroup"></path>
                <path d="M76.1626278,0.467351351 C76.1240194,0.562378378 76.1051861,0.660972973 76.1051861,0.769945946 L76.1051861,9.14172973 C76.1051861,9.67427027 76.1968417,10.1241081 76.3779556,10.4782703 C76.5637778,10.8405405 76.7957417,11.136973 77.0675694,11.3594595 C77.3434778,11.5851892 77.6457528,11.7492973 77.9665472,11.8469189 C78.2995833,11.9487568 78.6081361,12 78.8827889,12 L86.6537361,12 L86.6537361,10.4789189 L78.8997389,10.4789189 C78.4923111,10.4789189 78.1683778,10.3576216 77.9370417,10.1198919 C77.7057056,9.88345946 77.5883111,9.55394595 77.5883111,9.14172973 L77.5883111,1.52140541 L86.6537361,1.52140541 L86.6537361,0 L76.8553806,0 C76.74395,0 76.645075,0.0194594595 76.5524778,0.0587027027 C76.4617639,0.0976216216 76.3861167,0.149513514 76.3214556,0.217621622 C76.2533417,0.289945946 76.20155,0.371027027 76.1626278,0.467351351" id="Fill-6" sketch:type="MSShapeGroup"></path>
                <path d="M110.469742,12 L112.775256,12 L108.0506,7.81394595 L109.097419,7.81394595 C109.348844,7.81394595 109.622556,7.78378378 109.912275,7.72345946 C110.1976,7.66508108 110.485122,7.56778378 110.766681,7.43578378 C111.049181,7.30248649 111.323206,7.13124324 111.58185,6.92497297 C111.834217,6.72421622 112.060217,6.4787027 112.254514,6.19491892 C112.447869,5.91145946 112.604186,5.57708108 112.719383,5.20151351 C112.834581,4.82594595 112.892964,4.38875676 112.892964,3.90194595 L112.892964,2.42075676 C112.892964,2.17491892 112.849961,1.90475676 112.765839,1.61643243 C112.684542,1.33945946 112.549569,1.07610811 112.363433,0.833837838 C112.181064,0.597405405 111.937172,0.395675676 111.639606,0.235459459 C111.349572,0.0791351351 110.980125,0 110.541936,0 L101.955192,0 C101.843761,0 101.744886,0.0194594595 101.651975,0.0587027027 C101.561575,0.0976216216 101.4853,0.149513514 101.420953,0.217945946 C101.352839,0.289621622 101.301361,0.371027027 101.261811,0.467351351 C101.223203,0.562378378 101.204997,0.660972973 101.204997,0.769945946 L101.204997,12 L102.687808,12 L102.687808,1.52140541 L110.541936,1.52140541 C110.600633,1.52140541 110.664667,1.5252973 110.734036,1.53275676 C110.850803,1.54540541 110.960664,1.58562162 111.061422,1.65243243 C111.172853,1.72572973 111.260428,1.83145946 111.323833,1.9667027 C111.381903,2.09124324 111.409839,2.24562162 111.409839,2.43859459 L111.409839,3.90194595 C111.409839,4.25610811 111.353653,4.57848649 111.242222,4.86032432 C111.128908,5.14702703 110.964744,5.39740541 110.753811,5.60205405 C110.547586,5.80313514 110.301811,5.964 110.023392,6.08010811 C109.751878,6.19394595 109.451486,6.264 109.129122,6.29091892 L109.097419,6.29221622 L104.371822,6.29221622 L104.371822,7.81394595 L105.753875,7.81394595 L110.469742,12" id="Fill-7" sketch:type="MSShapeGroup"></path>
            </g>
        </g>
    </g>
</svg>

<svg viewBox="0 0 113 12" xmlns="http://www.w3.org/2000/svg"><g fill="#d1d3d4" fill-rule="evenodd"><path d="m3.06 5.23h6.364v1.54h-6.364v-1.54"/><path d="m-.05.468c-.038.095-.057.193-.057.302v8.372c0 .533.092.982.273 1.337.186.362.418.659.69.881.276.226.578.39.899.487.333.102.642.153.916.153h7.771v-1.521h-7.754c-.407 0-.731-.121-.963-.359-.232-.237-.349-.566-.349-.978v-7.62h9.07v-1.521h-9.798c-.111 0-.21.019-.303.059-.091.039-.166.091-.231.159-.068.072-.12.153-.159.25"/><path d="m35.08 11.235c.215-.169.406-.378.568-.622.164-.246.298-.537.399-.864.1-.325.151-.701.151-1.116 0-.415-.05-.789-.148-1.113-.098-.322-.231-.61-.397-.855-.165-.246-.358-.459-.571-.634-.219-.179-.452-.329-.693-.446-.243-.117-.489-.205-.732-.261-.246-.056-.481-.088-.699-.093h-5.21c-.538 0-.971-.172-1.287-.512-.311-.334-.469-.783-.469-1.334 0-.542.156-.99.465-1.333.316-.352.751-.53 1.291-.53h7.31v-1.521h-7.31c-.325 0-.684.062-1.068.183-.374.118-.726.313-1.049.581-.319.264-.589.614-.804 1.041-.211.42-.318.951-.318 1.58 0 .63.107 1.162.318 1.585.214.429.484.779.802 1.039.322.265.675.459 1.051.578.385.121.744.183 1.068.183h5.203c.258 0 .499.046.716.136.223.093.416.228.573.402.154.169.273.371.355.598.079.222.12.467.12.727 0 .544-.157.99-.467 1.328-.316.343-.752.518-1.297.518h-8.337v1.521h8.337c.216 0 .451-.027.698-.08.246-.053.492-.137.732-.25.239-.111.474-.258.699-.435"/><path d="m60.705 7.978c.252-.2.478-.445.672-.73.194-.282.35-.617.465-.993.115-.376.174-.813.174-1.299v-1.054c0-.257-.03-.538-.088-.836-.057-.292-.152-.587-.281-.876-.13-.29-.296-.572-.495-.838-.192-.258-.43-.489-.706-.687-.277-.199-.603-.362-.97-.482-.366-.121-.788-.182-1.255-.182h-5.116c-.273 0-.58.053-.913.156-.323.102-.627.266-.903.49-.272.22-.503.516-.688.88-.181.357-.273.805-.273 1.333v9.142h1.483v-9.142c0-.411.117-.741.348-.978.232-.238.556-.358.963-.358h5.098c.347 0 .661.06.934.179.274.119.513.287.709.499.194.21.348.464.459.755.105.276.174.581.207.908l.002.04v1.054c0 .348-.056.666-.167.948-.113.287-.275.536-.482.74-.204.201-.449.363-.729.48-.27.113-.574.184-.903.211l-.031.001h-4.727v1.522h4.727c.252 0 .525-.031.814-.091.287-.059.575-.155.858-.285.28-.129.554-.299.812-.505"/><path d="m79.27 5.23h6.364v1.54h-6.364v-1.54"/><path d="m76.16.467c-.039.095-.057.194-.057.303v8.372c0 .533.092.982.273 1.337.186.362.418.659.69.881.276.226.578.39.899.487.333.102.642.153.916.153h7.771v-1.521h-7.754c-.407 0-.731-.121-.963-.359-.231-.236-.349-.566-.349-.978v-7.62h9.07v-1.521h-9.798c-.111 0-.21.019-.303.059-.091.039-.166.091-.231.159-.068.072-.12.153-.159.25"/><path d="m110.47 12h2.306l-4.725-4.186h1.047c.251 0 .525-.03.815-.09.285-.058.573-.156.854-.288.282-.133.557-.305.815-.511.252-.201.478-.446.673-.73.193-.283.35-.618.465-.993.115-.376.174-.813.174-1.3v-1.481c0-.246-.043-.516-.127-.804-.081-.277-.216-.54-.402-.783-.182-.236-.426-.438-.724-.598-.29-.156-.659-.235-1.098-.235h-8.587c-.111 0-.21.019-.303.059-.09.039-.167.091-.231.159-.068.072-.12.153-.159.249-.039.095-.057.194-.057.303v11.23h1.483v-10.479h7.854c.059 0 .123.004.192.011.117.013.227.053.327.12.111.073.199.179.262.314.058.125.086.279.086.472v1.463c0 .354-.056.677-.168.958-.113.287-.277.537-.488.742-.206.201-.452.362-.73.478-.272.114-.572.184-.894.211l-.032.001h-4.726v1.522h1.382l4.716 4.186"/></g></svg>
